X: 22346
T: La Volta
R: waltz
M: 3/4
K: Gmajor
|:GA Bc de|d2dc B2|d2 c2 A2|B6|GA Bc de|d2dc B2|A2AG F2|G6:|
|:B2 A2 G2|B2Bc B2|B2 A2 G2|d6|BA GA Bc|d2dc B2|cB A2 F2|G6:|
|:GA B2 c2|d2 cd e2|c2 A2 d2|B2BA G2|FG AB cA|B2 AB cB|AG FG AF|G6:|

